src/assets/duotone/BucketCircle.svg

<svg width="24" height="24" viewBox="0 0 24 24"  xmlns="http://www.w3.org/2000/svg">
<path opacity="0.4" d="M12 22C17.5228 22 22 17.5228 22 12C22 6.47715 17.5228 2 12 2C6.47715 2 2 6.47715 2 12C2 17.5228 6.47715 22 12 22Z" />
<path d="M15.66 11.93C15.65 11.79 15.59 11.64 15.49 11.54L10.79 6.84001L10.24 6.28996C10.05 6.09996 9.74997 6.09996 9.55997 6.28996C9.36997 6.47996 9.36997 6.77995 9.55997 6.96995L10.11 7.52L6.50998 11.12C6.09998 11.53 5.87997 11.95 5.86997 12.36C5.85997 12.8 6.06998 13.24 6.50998 13.68L9.07996 16.25C9.93996 17.1 10.8 17.1 11.65 16.25L15.5 12.4C15.61 12.27 15.67 12.09 15.66 11.93Z" />
<path d="M16.9599 14.1902C16.7999 14.0102 16.4899 14.0102 16.3199 14.1902C16.1199 14.4002 15.1299 15.5202 15.1299 16.3602C15.1299 17.1902 15.7999 17.8602 16.6299 17.8602C17.4599 17.8602 18.1299 17.1902 18.1299 16.3602C18.1399 15.5202 17.1599 14.4102 16.9599 14.1902Z" />
</svg>

<?xml version="1.0" encoding="UTF-8"?>
<svg width="24" height="24" viewBox="0 0 24 24" xmlns="http://www.w3.org/2000/svg">
 <path d="m12 22c5.5228 0 10-4.4772 10-10 0-5.5228-4.4772-10-10-10-5.5228 0-10 4.4772-10 10 0 5.5228 4.4772 10 10 10z" opacity=".4"/>
 <path d="m15.66 11.93c-0.01-0.14-0.07-0.29-0.17-0.39l-4.7-4.7-0.55-0.55005c-0.19-0.19-0.49003-0.19-0.68003 0s-0.19 0.48999 0 0.67999l0.55003 0.55005-3.6 3.6c-0.41 0.41-0.63001 0.83-0.64001 1.24-0.01 0.44 0.20001 0.88 0.64001 1.32l2.57 2.57c0.86 0.85 1.72 0.85 2.57 0l3.85-3.85c0.11-0.13 0.17-0.31 0.16-0.47z"/>
 <path d="m16.96 14.19c-0.16-0.18-0.47-0.18-0.64 0-0.2 0.21-1.19 1.33-1.19 2.17 0 0.83 0.67 1.5 1.5 1.5s1.5-0.67 1.5-1.5c0.01-0.84-0.97-1.95-1.17-2.17z"/>
</svg>
